!!!COM: Felis, Stefano
!!!CDT: 
!!!PTL: Il sesto libro de madrigali a cinque voci
!!!PPP: Venice
!!!PPR: Heirs of G. Scotto
!!!PDT: 1591
!!!PUB-format:
!!!RISM: 1591-18
!!!rime: 59
!!!OTL:	Lunge da voi, ben mio
!!!AGN: Madrigal
!!!SCT: Trm0059b
!!!SCA: Trm0059b
!!!original-voices: 5
!!!extant-voices: 5
!!!complete: Y
!!!final: A
**kern	**text	**kern	**text	**kern	**text	**kern	**text	**kern	**text
*part5	*part5	*part4	*part4	*part3	*part3	*part2	*part2	*part1	*part1
*staff5	*staff5	*staff4	*staff4	*staff3	*staff3	*staff2	*staff2	*staff1	*staff1
*I"Basso	*	*I"Tenore	*	*I"Alto	*	*I"Quinto	*	*I"Canto	*
*I'B	*	*I'T	*	*I'A	*	*I'V	*	*I'C	*
*oclefC4	*	*oclefC3	*	*oclefC2	*	*oclefG2	*	*oclefG2	*
*clefF4	*	*clefGv2	*	*clefG2	*	*clefG2	*	*clefG2	*
*k[]	*	*k[]	*	*k[]	*	*k[]	*	*k[]	*
*omet(C)	*	*omet(C)	*	*omet(C)	*	*omet(C)	*	*omet(C)	*
*M4/2	*	*M4/2	*	*M4/2	*	*M4/2	*	*M4/2	*
=1	=1	=1	=1	=1	=1	=1	=1	=1	=1
0r	.	1r	.	1r	.	4ee	Lun-	4cc#X	Lun-
.	.	.	.	.	.	8ee	-ge	8cc#	-ge
.	.	.	.	.	.	8ff	da	8dd	da
.	.	.	.	.	.	4gg	voi,	4b	voi,
.	.	.	.	.	.	4ee	ben	4cc#X	ben
.	.	4d	Lun-	4a	Lun-	2ff	mi-	2dd	mi-
.	.	8d	-ge	8a	-ge	.	.	.	.
.	.	8d	da	8b	da	.	.	.	.
.	.	4a	voi,	4cc	voi,	2ee	-o,	2ee	-o,
.	.	4g#X	ben	4b	ben	.	.	.	.
=2	=2	=2	=2	=2	=2	=2	=2	=2	=2
0r	.	2a	mi-	2cc	mi-	4.ee	Non	2r	.
.	.	.	.	.	.	8ff	ho	.	.
.	.	4e	-o,	4b	-o,	4gg	vi-	4.ee	Non
.	.	8c	Non	8cc	Non	8gg	-ta	.	.
.	.	8d	ho	8a	ho	8ff	né	8ff	ho
.	.	4e	vi-	4cc	vi-	8eeL	co-	4gg	vi-
.	.	.	.	.	.	8dd	.	.	.
.	.	8e	-ta	8c	-ta	8ee	.	8gg	-ta
.	.	8d	né	8d	né	8ffJ	.	8ff	né
.	.	4c	co-	4.e	co-	4gg	.	4ee	co-
.	.	4A	-re e	.	.	4aa	-re e	4cc	-re e
.	.	.	.	8f	-re e	.	.	.	.
=3	=3	=3	=3	=3	=3	=3	=3	=3	=3
1r	.	4e	non	4g	non	4gg	non	4b	non
.	.	4f	so-	2a	so-	4dd	so-	4a	so-
.	.	2e	-n'i-	.	.	2ee	-n'i-	2b	-n'i-
.	.	.	.	4g#X	-n'i-	.	.	.	.
2r	.	2A	-o.	1a	-o.	2cc#X	-o.	2a	-o.
2A	Non	2c	Non	.	.	2r	.	[2ee	Non
=4	=4	=4	=4	=4	=4	=4	=4	=4	=4
2G	so-	2B	so-	2r	.	0r	.	2ee]	.
2F	-n'oi-	2A	-n'oi-	1a	Non	.	.	2dd	so-
1E	-mè!,	[1e	-mè!,	.	.	.	.	2cc	-n'oi-
.	.	.	.	[2g	so-	.	.	2b	-mè!,
=5	=5	=5	=5	=5	=5	=5	=5	=5	=5
1A	non	2e]	.	2g]	.	0r	.	2cc#X	non
.	.	2a	non	2f	-n'oi-	.	.	2.dd	so-
1A	so-	1a	so-	4.e	-mè!,	.	.	.	.
.	.	.	.	.	.	.	.	8cc#XL	.
.	.	.	.	8d	non	.	.	8bJ	.
.	.	.	.	2e	so-	.	.	2cc#X	.
=6	=6	=6	=6	=6	=6	=6	=6	=6	=6
4D	-no	4f#X	-no	4d	-no	4r	.	2dd	-no
4d	Quel	4f#	Quel	4d	Quel	4a	Quel	.	.
4.c	ch'al-	4.g	ch'al-	4.e	ch'al-	4.cc	ch'al-	2r	.
8c	-tra	8g	-tra	8e	-tra	8cc	-tra	.	.
4d	vol-	4fni	vol-	4d	vol-	4a	vol-	2r	.
4G	-ta	4g	-ta	4d	-ta	4b-X	-ta	.	.
2A	fui,	2e	fui,	2c#X	fui,	4a	fui,	4r	.
.	.	.	.	.	.	4ee	<Quel	4aa	Quel
=7	=7	=7	=7	=7	=7	=7	=7	=7	=7
1r	.	1r	.	1r	.	4.ff	ch'al-	4.aa	ch'al-
.	.	.	.	.	.	8ee	-tra	8gg	-tra
.	.	.	.	.	.	4dd	vol-	4ff	vol-
.	.	.	.	.	.	4cc#X	-ta	4ee	-ta
2r	.	2r	.	2r	.	2dd	fui,>	2dd	fui,
2D	ma u-	2A	ma u-	2f	ma u-	2dd	ma	[2a	ma u-
=8	=8	=8	=8	=8	=8	=8	=8	=8	=8
1.A	-n'om-	1.c	-n'om-	4e	-n'om-	1ee	u-	2a]	.
.	.	.	.	4d	.	.	.	.	.
.	.	.	.	4c	.	.	.	1a	-n'om-
.	.	.	.	4B	.	.	.	.	.
.	.	.	.	2A	.	2ff	-n'om-	.	.
2G	-bra	2B	-bra	2B	-bra	[2ee	-bra	2e	-bra
=9	=9	=9	=9	=9	=9	=9	=9	=9	=9
1F	me-	1A	me-	2c	me-	2ee]	.	1.a	me-
.	.	.	.	2A	-sta,	2dd	me-	.	.
2.E	-sta,	1B	-sta,	2r	.	2ee	-sta,	.	.
.	.	.	.	[2e	Non-	4r	.	2g#X	-sta,
4E	Non	.	.	.	.	4ee	Non	.	.
=10	=10	=10	=10	=10	=10	=10	=10	=10	=10
2C	so-	1r	.	2e]	.	2.gg	so-	2cc	Non
2D	-n'oi-	.	.	1d	-so-	.	.	1b	so-
.	.	.	.	.	.	4ff	-n'oi-	.	.
1E	-mè!,	2r	.	.	.	1ee	-mè!,	.	.
.	.	[2e	Non	2c	-n'oi-	.	.	2a	-n'oi-
=11	=11	=11	=11	=11	=11	=11	=11	=11	=11
1E	non	2e]	.	2B	-mè!,	1ee	non	2g#X	-mè!,
.	.	4d	so-	4r	.	.	.	1a	non
.	.	4c	-n'oi-	4e	non	.	.	.	.
1E	so-	4B	-mè!,	1e	so-	1ee	so-	.	.
.	.	4c	non	.	.	.	.	.	.
.	.	2B	so-	.	.	.	.	2g#X	so-
=12	=12	=12	=12	=12	=12	=12	=12	=12	=12
4A	-no	4A	-no	4e	-no	4cc#X	-no	2a	-no
4d	Quel	4f	Quel	4d	Quel	4dd	Quel	.	.
4.c	ch'al-	4.e	ch'al-	4.g	ch'al-	4.ee	ch'al-	2r	.
8c	-tra	8e	-tra	8g	-tra	8e	-tra	.	.
4d	vol-	4d	vol-	4f	vol-	4a	vol-	2r	.
4B-X	-ta	4d	-ta	4d	-ta	4g	-ta	.	.
2A	fui,	2c#X	fui,	2e	fui,	4a	fui,	4r	.
.	.	.	.	.	.	4ee	Quel	4aa	Quel
=13	=13	=13	=13	=13	=13	=13	=13	=13	=13
1r	.	1r	.	1r	.	4.ff	ch'al-	4.aa	ch'al-
.	.	.	.	.	.	8ee	-tra	8gg	-tra
.	.	.	.	.	.	4dd	vol-	4ff	vol-
.	.	.	.	.	.	4cc#X	-ta	4ee	-ta
2r	.	2r	.	2r	.	2dd	fui,	2dd	fui,
2D	ma u-	2A	ma u-	2f	ma u-	2dd	ma u-	[2a	ma u-
=14	=14	=14	=14	=14	=14	=14	=14	=14	=14
1.A	-n'om-	1.c	-n'om-	4e	-n'om-	1ee	-n'om-	2a]	.
.	.	.	.	4d	.	.	.	.	.
.	.	.	.	4c	.	.	.	1a	-n'om-
.	.	.	.	4B	.	.	.	.	.
.	.	.	.	2A	.	2ff	-bra	.	.
2G	-bra	2B	-bra	2B	-bra	[2ee	me-	2e	-bra
=15	=15	=15	=15	=15	=15	=15	=15	=15	=15
1F	me-	1A	me-	2c	me-	2ee]	.	1a	me-
.	.	.	.	2A	-sta,	2dd	.	.	.
2E	-sta,	4B	-sta,	1r	.	4ee	-sta,	4.g#X	-sta,
.	.	4B	Un	.	.	2ee	Un	.	.
.	.	.	.	.	.	.	.	8g#	Un
2r	.	4c#X	la-	.	.	.	.	2a	la-
.	.	4d	-cri-	.	.	[4ff	la-	.	.
=16	=16	=16	=16	=16	=16	=16	=16	=16	=16
1r	.	2A	-ma-	0r	.	4ff]	.	2cc	-cri-
.	.	.	.	.	.	4ee	-gri-	.	.
.	.	2d	-bil	.	.	4dd	-ma-	4b	-ma-
.	.	.	.	.	.	4cc	-bil	2a	-bil
2r	.	2e	suo-	.	.	2b	suo-	.	.
.	.	.	.	.	.	.	.	4g#Xi	suo-
4r	.	4A	-no,	.	.	2a	-no,	2a	-no,
[4d	U-	[4f	U-	.	.	.	.	.	.
=17	=17	=17	=17	=17	=17	=17	=17	=17	=17
4d]	.	4f]	.	2a	U-	0r	.	1r	.
4c	-na	4e	-na	.	.	.	.	.	.
2B-X	vo-	2d	vo-	4g	-na	.	.	.	.
.	.	.	.	4.f	vo-	.	.	.	.
4A	-ce	4c	-ce	.	.	.	.	2r	.
.	.	.	.	8e	-ce	.	.	.	.
4B-X	do-	2f	do-	4d	do-	.	.	.	.
2G	-len-	.	.	2g	-len-	.	.	[2b-X	U-
.	.	4e	-len-	.	.	.	.	.	.
=18	=18	=18	=18	=18	=18	=18	=18	=18	=18
2F	-te;	2f	-te;	1c	-te,	4r	.	4b-]	.
.	.	.	.	.	.	2ff	U-	4a	-na
2r	.	2r	.	.	.	.	.	2g	vo-
.	.	.	.	.	.	4ee	-na	.	.
1r	.	1r	.	4.f	U-	4dd	vo-	4a	-ce
.	.	.	.	.	.	4cc	-ce	4a	do-
.	.	.	.	8a	-na	.	.	.	.
.	.	.	.	4g	vo-	2dd	do-	8bL	-len-
.	.	.	.	.	.	.	.	8ccJ	.
.	.	.	.	4b-X	-ce	.	.	[4dd	.
=19	=19	=19	=19	=19	=19	=19	=19	=19	=19
0r	.	0r	.	2a	do-	4.ee	-len-	8dd]L	.
.	.	.	.	.	.	.	.	8ccJ	.
.	.	.	.	.	.	.	.	2cc	.
.	.	.	.	.	.	16ddL	.	.	.
.	.	.	.	.	.	16ccJ	.	.	.
.	.	.	.	4.g	-len-	4dd	.	.	.
.	.	.	.	.	.	4ee	-te; e	4b	-te; e
.	.	.	.	8g	-te; e	.	.	.	.
.	.	.	.	4a	ciò	4ff	ciò	4cc#X	ciò
.	.	.	.	4b-Xi	mi	4gg	mi	2dd	mi
.	.	.	.	2a	re-	2ee	re-	.	.
.	.	.	.	.	.	.	.	4cc#X	re-
=20	=20	=20	=20	=20	=20	=20	=20	=20	=20
4r	.	4r	.	2d	-sta	2dd	-sta,	2dd	-sta,
2d	So-	2f	So-	.	.	.	.	.	.
.	.	.	.	2a	So-	2r	.	2r	.
4c	-lo	4e	-lo	.	.	.	.	.	.
4B	per	4d	per	4.g	-lo	1r	.	1r	.
2c	vo-	2e	vo-	.	.	.	.	.	.
.	.	.	.	8a	per	.	.	.	.
.	.	.	.	4g	vo-	.	.	.	.
4d	-stro	[4d	-stro	4f	-stro	.	.	.	.
=21	=21	=21	=21	=21	=21	=21	=21	=21	=21
2A	do-	4d]	.	2e	do-	1r	.	1r	.
.	.	4c#X	do-	.	.	.	.	.	.
4D	-no:	4d	-no:	2d	-no:	.	.	.	.
4d	Ma	4f	Ma	.	.	.	.	.	.
4c	re-	4e	re-	4r	.	2r	.	2r	.
4B	-sta il	4d	-sta il	4d	Ma	.	.	.	.
4A	ma-	4c#X	ma-	4e	re-	4r	.	4r	.
4D	-le,	4d	-le,	4f	-sta il	4aa	Ma	4ff	Ma
=22	=22	=22	=22	=22	=22	=22	=22	=22	=22
0r	.	2r	.	2g	ma-	4gg	re-	4ee	re-
.	.	.	.	.	.	4ff	-sta il	4dd	-sta il
.	.	4r	.	2a	-le,	4ee	ma-	2cc#X	ma-
.	.	4a	Ma	.	.	4ff	-le on-	.	.
.	.	4g	re-	4r	.	4gg	-de	2dd	-le on-
.	.	4f	-sta il	4a	Ma	4aa	mo-	.	.
.	.	4e	ma-	4b	re-	[2gg	-rir	2ee	-de
.	.	4e	-le on-	4cc	-sta il	.	.	.	.
=23	=23	=23	=23	=23	=23	=23	=23	=23	=23
0r	.	2.d	-de	4.dd	ma-	4gg]	.	2a	mo-
.	.	.	.	.	.	8ffL	.	.	.
.	.	.	.	8cc	-le on-	8eeJ	.	.	.
.	.	.	.	4b	-de	4ff	.	4.dd	-rir
.	.	4d	mo-	4a	mo-	4ff	de-	.	.
.	.	.	.	.	.	.	.	8cc	.
.	.	4e	-rir	4g#X	-rir	4.ee	-si-	4b	.
.	.	4f	de-	2a	de-	.	.	4a	de-
.	.	.	.	.	.	8dd	.	.	.
.	.	2e	-si-	.	.	2ee	.	2b	-si-
.	.	.	.	4g#X	-si-	.	.	.	.
=24	=24	=24	=24	=24	=24	=24	=24	=24	=24
4r	.	2A	-o,	2a	-o,	2cc#X	-o,	4a	-o,
4A	Ma	.	.	.	.	.	.	4aa	Ma
4B	re-	4r	.	2r	.	4r	.	4gg	re-
4c#X	-sta il	4a	Ma	.	.	4ee	Ma	4ee	-sta il
2d	ma-	4a	re-	1r	.	4dd	re-	2ff	ma-
.	.	4a	-sta il	.	.	4ccni	-sta il	.	.
2e	-le on-	2g#X	ma-	.	.	2b	ma-	2ee	-le on-
=25	=25	=25	=25	=25	=25	=25	=25	=25	=25
2.A	-de	2a	-le on-	4r	.	4a	-le on-	4cc	-de
.	.	.	.	4e	on-	2cc	-de	4a	mo-
.	.	4.e	-de	4A	-de	.	.	2ee	-rir
4G	mo-	.	.	4e	mo-	4b	mo-	.	.
.	.	8g	mo-	.	.	.	.	.	.
4F	-rir	4c	-rir	4e	-rir	4cc	-rir	4a	de-
4F	de-	4d	de-	4d	de-	4a	de-	2a	-si-
2E	-si-	2B	-si-	2e	-si-	2ee	-si-	.	.
.	.	.	.	.	.	.	.	4g#Xi	.
=26	=26	=26	=26	=26	=26	=26	=26	=26	=26
0Al	-o.	0Al	-o.	0el	-o.	0cc#Xl	-o.	0al	-o.
==	==	==	==	==	==	==	==	==	==
*-	*-	*-	*-	*-	*-	*-	*-	*-	*-
!!!system-decoration: [*]
!!!RDF**kern: i = editorial accidental
!!!RDF**kern: l = terminal long
!!!ENC: Emiliano Ricciardi
!!!END: 2017/11
!!!EED: Deutsch, Catherine
!!!EEV: 2018/03/04
!!!YEC: Copyright 2018 Emiliano Ricciardi, All Rights Reserved
!!!ONB: Translated from MusicXML on 2018/03/04 and edited by Craig Stuart Sapp
!!@@BEGIN:	VERSEDATA
!!@SOLERTI:	59
!!@CATALOGNUM:	Trm0059
!!@LAST_MODIFIED: 2020/07/12
!!@TITLE:		Lunge da voi, ben mio
!!@GENRE:		madrigale
!!@MANUSRC:	C, V<sub>8</sub>
!!@PRINTSRC:	27, 48, 70, 141, 145, 166, 169
!!@@BEGIN:	VERSES
!!@ABOUTIT:	Lontano da la sua donna dice di non esser più quel ch'egli era ma l'ombra sua.
!!@ABOUTEN:	Away from his lady, he says that he is no longer what he used to be, but only its shadow.
!!@EDITOR:	Solerti, Angelo
!!@EDITION_TITLE: Le Rime di Torquato Tasso
!!@EDITION_LOC:	Bologna
!!@EDITION_PUB:	Romagnoli-Dall’Acqua
!!@EDITION_DATE:  1898-1902
!!@EDITION_VOL:	2
!!@EDITION_PAGE:  87
!!@TRANSLATOR:	Maria Pastore Passaro; adapted by Emiliano Ricciardi and Amyrose McCue Gill
!!@TRANSLATION_TITLE: Rhymes of Love
!!@TRANSLATION_LOC: Mineola, NY
!!@TRANSLATION_PUB: Legas
!!@TRANSLATION_DATE: 2011
!!@TRANSLATION_PAGE: 66-67
!!@VERSE:
!!	Lunge da voi, ben mio,
!!	Non ho vita né core e non son io.
!!	Non sono, oimé!, non sono
!!	Quel ch'altra volta fui, ma un'ombra mesta,
!!	Un lagrimevol suono,
!!	Una voce dolente; e ciò mi resta
!!	Solo per vostro dono:
!!	Ma resta il male onde morir desio.
!!@TVERSE:
!!	Far from you, my dear,
!!	I have no life nor heart, and am not myself.
!!	I am not, oh dear!, I am not
!!	What I once was, but [now] a miserable shadow,
!!	A tearful tone,
!!	An aching voice; and this is all that remains to me
!!	Only because of your gift;
!!	But the ill remains so that I wish to die.
!!@@END:		VERSES
!!@OTHER_CRIT_ED:   Torquato Tasso, <i>Rime d’amore (secondo il codice
!!		Chigiano L VIII 302)</i>, eds. Franco Gavazzeni and
!!		Vercingetorige Martignone, vol. 4 of <i>Edizione
!!		Nazionale delle opere di Torquato Tasso</i>
!!		(Alessandria: Edizioni Dell’Orso, 2004), 43.
!!@ATTRIBUTION_ABOUT:	Secure
!!		<br>
!!		This poem appears in the autograph Chigiano
!!		L.VIII.302 (Biblioteca Vaticana, Rome), compiled
!!		around 1584&ndash;85 (see Literary Sources).
!!@DATING:
!!@DEDICATEE:	Bendidio, Lucrezia
!!@COMMENTARY:
!!@@END:		VERSEDATA
!!@@BEGIN:	SETTING
!!@CATALOGNUM:	Trm0059b
!!@RIMETITLE:	Lunge da voi, ben mio
!!@SOLERTI:	59
!!@COMPOSER:	Felis, Stefano
!!@PRINCEPSTITLE:	Il sesto libro de madrigali a cinque voci
!!@PRINCEPSLOC:	Venetia
!!@NORMLOC:	Venice
!!@NORMPUB:	Heirs of G. Scotto
!!@NORMPUBSHORT:	Scotto
!!@PRINCEPSPUB:	Eredi di Scotto
!!@PRINCEPSYEAR:	1591
!!@PRINCEPSRISM:	1591-18
!!@REPRINTS:	
!!@OVOICES:	5
!!@EXTANTVOICES:	5
!!@PARTBOOKS:	
!!@EXTPARTBOOKS:	
!!@OCLEFS:	G2,G2,C2,C3,C4
!!@OMENSURATION:	C
!!@OKEYSIG:	-
!!@FINAL:	A
!!@TIMPEDITOR:	Deutsch, Catherine
!!@NOTE:		
!!@@END:		SETTING
